packages/foundations/assets/icons/functional/images/business & payment/shopping_basket.svg

<svg xmlns="http://www.w3.org/2000/svg" width="32" height="32" fill="none"><path fill="#1A1C1F" fill-rule="evenodd" d="M15.28 3.02c-3.216.352-5.816 2.437-6.824 5.473-.242.727-.351 1.28-.388 1.971l-.03.571-2.193.016-2.192.016-.305.149c-.623.306-1.087.964-1.145 1.624-.023.252.202 1.518 1.259 7.08.707 3.725 1.337 6.917 1.398 7.093a3.1 3.1 0 0 0 1.484 1.678c.68.341.117.322 9.742.322 9.539 0 9.014.017 9.643-.299.586-.295 1.096-.852 1.362-1.491.128-.306.398-1.658 1.44-7.202.705-3.754 1.282-6.927 1.282-7.052 0-.293-.179-.82-.375-1.106-.199-.289-.608-.588-.982-.72-.271-.095-.454-.103-2.367-.103h-2.073l-.036-.512c-.143-2.029-.966-3.835-2.386-5.235a7.96 7.96 0 0 0-4.042-2.151c-.502-.1-1.824-.171-2.272-.122m1.802 2.073c1.465.255 2.893 1.171 3.783 2.427.653.922 1.108 2.25 1.108 3.234v.286H10.026l.03-.387c.017-.212.067-.578.112-.813.442-2.338 2.289-4.229 4.605-4.713.628-.131 1.663-.147 2.309-.034m10.685 8.094c-1.954 10.58-2.443 13.135-2.553 13.331a1.1 1.1 0 0 1-.36.354l-.241.141H16.08c-4.693 0-8.6-.018-8.681-.041-.191-.053-.543-.371-.62-.559-.043-.106-1.938-9.954-2.54-13.2l-.038-.2h23.598z"/></svg>

<svg width="32" height="32" viewBox="0 0 32 32" fill="none" xmlns="http://www.w3.org/2000/svg"><path d="M15.280 3.020 C 12.064 3.372,9.464 5.457,8.456 8.493 C 8.214 9.220,8.105 9.773,8.068 10.464 L 8.038 11.035 5.845 11.051 L 3.653 11.067 3.348 11.216 C 2.725 11.522,2.261 12.180,2.203 12.840 C 2.180 13.092,2.405 14.358,3.462 19.920 C 4.169 23.645,4.799 26.837,4.860 27.013 C 5.106 27.714,5.673 28.355,6.344 28.691 C 7.024 29.032,6.461 29.013,16.086 29.013 C 25.625 29.013,25.100 29.030,25.729 28.714 C 26.315 28.419,26.825 27.862,27.091 27.223 C 27.219 26.917,27.489 25.565,28.531 20.021 C 29.236 16.267,29.813 13.094,29.813 12.969 C 29.813 12.676,29.634 12.149,29.438 11.863 C 29.239 11.574,28.830 11.275,28.456 11.143 C 28.185 11.048,28.002 11.040,26.089 11.040 L 24.016 11.040 23.980 10.528 C 23.837 8.499,23.014 6.693,21.594 5.293 C 20.473 4.188,19.079 3.447,17.552 3.142 C 17.050 3.042,15.728 2.971,15.280 3.020 M17.082 5.093 C 18.547 5.348,19.975 6.264,20.865 7.520 C 21.518 8.442,21.973 9.770,21.973 10.754 L 21.973 11.040 16.000 11.040 L 10.026 11.040 10.056 10.653 C 10.073 10.441,10.123 10.075,10.168 9.840 C 10.610 7.502,12.457 5.611,14.773 5.127 C 15.401 4.996,16.436 4.980,17.082 5.093 M27.767 13.187 C 25.813 23.767,25.324 26.322,25.214 26.518 C 25.143 26.644,24.996 26.788,24.854 26.872 L 24.613 27.013 16.080 27.013 C 11.387 27.013,7.480 26.995,7.399 26.972 C 7.208 26.919,6.856 26.601,6.779 26.413 C 6.736 26.307,4.841 16.459,4.239 13.213 L 4.201 13.013 16.000 13.013 L 27.799 13.013 27.767 13.187 " fill="#1A1C1F" stroke="none" fill-rule="evenodd"></path></svg>
